X:147
T: Xiangsi pu
N: C1643
O: China,Hebei, Shijiazhuang
S: IV, 79(1)]
R: Wuge, Lahua]
M: 2/4
L: 1/16
K: E
B2Bce2ec | B2cBG2FE | B2BcB2GF | E4E2E2 |
FGB4Bc | E2ECE2F2 | A2B2FEC2 | B,4B,4 |
FGB4Bc | E2ECE2F2 | A2B2FEC2 | B,4B,4

@@@ Tune index: 6702
